X:1
T:Title
%%score 1 2
L:1/8
Q:1/4=105
M:3/4
K:F
V:1 treble nm="Grand Piano, Soprano"
V:2 bass nm="Choir Pad, Orrington, SM"
V:1
 [DG]3 [GB]2 [GB] | [FA]2 [FA] G3 | ^F3 G2 G | [DB]2 [DB] [DA]3 | [FA]3 [GB]2 [GB] | %5
w: By~Carl~Friedrich~Zelter~(1758\-1832) * *|||||
 [Ac]2 [Ac] [Bd]2 [Bd] | [Ac]2 [Ac] [GB]3 | [FA]3 [DG]3 | [D^F]3 [DG]3- | [DG]6 |] %10
w: |||||
V:2
 [G,B,]3 [G,D]2 [G,D] | [D,D]2 [D,C] [G,D]3 | [A,C]3 [B,D]2 [B,D] | [G,D]2 [G,D] [D,D]3 | %4
 [D,D]3[K:treble] [G,D]2 [G,D] | [F,F]2 [F,F] [B,F]2 [B,F] | [F,F]2 [F,F] [G,D]3 | [C,C]3 [D,B,]3 | %8
 [D,A,]3 [G,,G,]3- | [G,,G,]6 |] %10

